X:1
T: Johnny's made a Wedding o' it
C:
R:Strathspey
Q: 128
K:G
M:4/4
L:1/16
|:c2|B3G d3G B3G G3B|A3=F c3F A3F F3A|B3G d3G B3G G3g|e3g d3g BG3 G2c2|
B3G d3G B3G G3B|A3=F c3F A3F F3A|B3G d3G B3G G3g|e3g d3g BG3 G2g2|
b3g a3f g3d d3e|=f3d c3_B A=F3 F2g2|bag2 agf2 gd3 d2g2|e3g f3a gG3 G3g|
b3g a3f g3d d3e|=f3d c3_B A=F3 F3A|G3B A3c B3d c3e|d3g f3a gG3 G2:|
